docs/images/developers/playing-back.svg

<svg height="336" viewBox="0 0 336 336" width="336" xmlns="http://www.w3.org/2000/svg"><g fill="#d1d1d1"><path d="m201 298.17h37.1v-37.17h-37.1zm10-27.17h17.1v17.14h-17.1z"/><path d="m102 298.17h37.14v-37.17h-37.14zm10-27.17h17.14v17.14h-17.14z"/><path d="m238.1 211h-37.1v37.14h37.1zm-10 27.14h-17.1v-17.14h17.1z"/><path d="m222.4 174.1-10 10h45.6v119.68a12 12 0 0 1 -12 12h-164.4v-131.68h80.4v-10h-139v-41.1h139v-60h-135a24.07 24.07 0 0 0 -24 24v212a24.07 24.07 0 0 0 24 24h227a24.07 24.07 0 0 0 24-24v-134.9zm-123.4-80.6a10 10 0 1 1 -10 10 10 10 0 0 1 10-10zm-33 0a10 10 0 1 1 -10 10 10 10 0 0 1 10-10zm-33 0a10 10 0 1 1 -10 10 10 10 0 0 1 10-10zm38.6 222.28h-36.6a12 12 0 0 1 -12-12v-119.68h48.6z"/><path d="m151.48 298.17h37.14v-37.17h-37.14zm10-27.14h17.14v17.14h-17.14z"/><path d="m139.14 211h-37.14v37.14h37.14zm-10 27.14h-17.14v-17.14h17.14z"/><path d="m188.62 211h-37.14v37.14h37.14zm-10 27.14h-17.14v-17.14h17.14z"/><path d="m327 3h-148a6 6 0 0 0 -6 6v191.59c0 3.3 1.91 4.09 4.24 1.75l35.1-35.1a16.75 16.75 0 0 1 10.25-4.24h104.41a6 6 0 0 0 6-6v-148a6 6 0 0 0 -6-6zm-79 130h-45v-100h45zm55 0h-45v-60h45z"/></g></svg>

<svg id="Layer_1" data-name="Layer 1" xmlns="http://www.w3.org/2000/svg" width="336" height="336" viewBox="0 0 336 336"><path d="M201,298.17H238.1V261H201ZM211,271H228.1v17.14H211Z" fill="#d1d1d1"/><path d="M102,298.17h37.14V261H102ZM112,271h17.14v17.14H112Z" fill="#d1d1d1"/><path d="M238.1,211H201v37.14H238.1Zm-10,27.14H211V221H228.1Z" fill="#d1d1d1"/><path d="M222.4,174.1l-10,10H258V303.78a12,12,0,0,1-12,12H81.6V184.1H162v-10H23V133H162V73H27A24.07,24.07,0,0,0,3,97V309a24.07,24.07,0,0,0,24,24H254a24.07,24.07,0,0,0,24-24V174.1ZM99,93.5a10,10,0,1,1-10,10A10,10,0,0,1,99,93.5Zm-33,0a10,10,0,1,1-10,10A10,10,0,0,1,66,93.5Zm-33,0a10,10,0,1,1-10,10A10,10,0,0,1,33,93.5ZM71.6,315.78H35a12,12,0,0,1-12-12V184.1H71.6Z" fill="#d1d1d1"/><path d="M151.48,298.17h37.14V261H151.48Zm10-27.14h17.14v17.14H161.48Z" fill="#d1d1d1"/><path d="M139.14,211H102v37.14h37.14Zm-10,27.14H112V221h17.14Z" fill="#d1d1d1"/><path d="M188.62,211H151.48v37.14h37.14Zm-10,27.14H161.48V221h17.14Z" fill="#d1d1d1"/><path d="M327,3H179a6,6,0,0,0-6,6V200.59c0,3.3,1.91,4.09,4.24,1.75l35.1-35.1A16.75,16.75,0,0,1,222.59,163H327a6,6,0,0,0,6-6V9A6,6,0,0,0,327,3ZM248,133H203V33h45Zm55,0H258V73h45Z" fill="#d1d1d1"/></svg>
